X:64
T:Dying March of General Wolfe,The. TJD.64
M:C
L:1/8
Q:1/4=100
S:T.J.Dixon MS2, Lincolnshire, early 19thC
R:march
A:Lincolnshire, Holton le Moor
Z:vmp.R.Greig2010
K:C
G2|c2E>G c2g>f|e>fe>dc2c2|d2(de/f/)e2d2|c2c>cc2>e2|!
d2(d>d)d2(e>f)|e2(e>e)e2(^f>g)|d2(d>d)d2d2|g2(f>e)d2e2|!
B>cd>eB2″tr”A2|G2(G>G)G2::d2|g2(d>d)d2(g=f)|e2(e>e)e2(e>f)|!
g2(d>d)d2(g>f)|e2(e>e)e2e2|f2(f>f)f2e2|a2(a>a)a2g2|aagg ffee|!
d2(d>d)d2G2|c2(E>G)c2(g>f)|e>fe>dc2c2|d2(de/f/)e2d2|c2(c>c)c2:|]

